X: 32156
T: Peter Rae's
R: jig
M: 6/8
K: Dmajor
A|DFF FGA|GBB Bcd|cde ABc|dfb a3|
DFF FGA|GBB Bcd|cde ABc|d3 d2:|
G-|GEE EFG|FDD D3|^GEE EFG|Acd ef=g|
fdd def|eBB Bed|cde ABc|d3 d2:|

